map_marker_monochrome/openmoji_ubuntu.svg

<svg xmlns="http://www.w3.org/2000/svg" width="24" height="24" viewBox="0 0 24 24"> <g transform="scale(0.41379310344827586)">
  
  <g
     id="line"
     transform="translate(-7,-7.0001)">
    <path
       fill="#000"
       d="m 54.896,34 v 1 c 0.2833,0 0.5533,-0.1202 0.743,-0.3307 0.1896,-0.2105 0.281,-0.4916 0.2516,-0.7734 z m -5.4225,-11.3965 -0.796,-0.6052 c -0.3021,0.3972 -0.265,0.9564 0.0869,1.3103 z M 47.8341,34 46.8479,34.1654 C 46.9287,34.6471 47.3456,35 47.8341,35 Z m -16.4108,-9.0964 -0.848,0.53 c 0.2587,0.414 0.7784,0.5806 1.2296,0.3943 z m -3.7436,-5.9897 -0.4385,-0.8988 c -0.2547,0.1243 -0.4447,0.3508 -0.5228,0.6232 -0.0781,0.2725 -0.0369,0.5652 0.1133,0.8056 z m 13.2072,-1.2795 -0.2566,0.9665 c 0.4818,0.1279 0.9842,-0.1186 1.178,-0.5779 z m 0.2798,-0.5626 -0.866,-0.5 v 0 z m 6.8301,-1.8301 -0.5,0.866 v 0 z m 1.8301,6.8301 0.8661,0.5 v 0 z m -32.1736,18.8859 0.9655,-0.2603 c -0.1303,-0.4835 -0.5983,-0.7961 -1.0949,-0.7313 z m 0,-9.9154 -0.1294,0.9916 c 0.4966,0.0648 0.9646,-0.2478 1.0949,-0.7313 z m 6.6362,-10.0055 0.848,-0.53 c -0.1503,-0.2405 -0.3957,-0.4059 -0.6751,-0.4549 -0.2794,-0.049 -0.5665,0.0229 -0.7897,0.1978 z m 3.7434,5.9894 0.6642,0.7476 c 0.3647,-0.324 0.4424,-0.8639 0.1838,-1.2776 z m 0,17.9476 0.848,0.53 c 0.2586,-0.4137 0.1809,-0.9536 -0.1838,-1.2776 z m -3.7434,5.9894 -0.6168,0.787 c 0.2232,0.175 0.5103,0.2469 0.7897,0.1979 0.2794,-0.049 0.5248,-0.2144 0.6751,-0.4549 z m 25.5563,-1.0361 0.866,-0.5 v 0 z m -0.3612,-0.5419 -0.7097,-0.7045 c -0.352,0.3547 -0.3882,0.9148 -0.0847,1.3118 z m -1.4689,7.372 0.5,0.8661 v 0 z m -6.8302,-1.8301 -0.866,0.5 v 0 z m -0.2813,-0.5661 0.9217,-0.3879 c -0.1936,-0.46 -0.6968,-0.7069 -1.1791,-0.5784 z m -13.2245,-1.2749 -0.848,-0.53 c -0.1502,0.2404 -0.1914,0.5331 -0.1133,0.8056 0.0781,0.2724 0.2681,0.4989 0.5228,0.6232 z m 3.7436,-5.9897 0.3816,-0.9244 C 31.3537,45.9858 30.834,46.1524 30.5753,46.5664 Z M 47.8341,38 v -1 c -0.4885,0 -0.9054,0.3528 -0.9862,0.8345 z m 7.0619,0 0.9946,0.104 C 55.92,37.8223 55.8286,37.5412 55.639,37.3307 55.4493,37.1202 55.1793,37 54.896,37 Z m 0.9946,-4.1041 C 55.4027,29.2321 53.3122,25.046 50.1826,21.8985 l -1.4182,1.4101 c 2.819,2.8351 4.6983,6.6014 5.137,10.7954 z M 47.8341,35 H 54.896 V 33 H 47.8341 Z M 36,25 c 5.4495,0 9.9752,3.9637 10.8479,9.1654 l 1.9724,-0.3309 C 47.7887,27.6854 42.4425,23 36,23 Z m -4.1951,0.8279 C 33.0964,25.2947 34.5125,25 36,25 v -2 c -1.7539,0 -3.4291,0.3479 -4.9584,0.9793 z m -4.9732,-6.384 3.7436,5.9897 1.696,-1.06 -3.7436,-5.9897 z M 36,16 c -3.1393,0 -6.1124,0.724 -8.7588,2.0151 l 0.8769,1.7975 C 30.4974,18.6518 33.1711,18 36,18 Z m 5.1434,0.6678 C 39.5011,16.232 37.7769,16 36,16 v 2 c 1.6022,0 3.154,0.2091 4.6303,0.6009 z m 0.6649,1.3552 c 0.0643,-0.1526 0.139,-0.3033 0.2244,-0.4512 l -1.732,-1 c -0.127,0.22 -0.2387,0.445 -0.3352,0.674 z m 0.2244,-0.4512 c 1.1046,-1.9132 3.5509,-2.5687 5.4641,-1.4641 l 1,-1.7321 c -2.8697,-1.6568 -6.5393,-0.6736 -8.1961,2.1962 z m 5.4641,-1.4641 c 1.9132,1.1046 2.5687,3.5509 1.4641,5.4641 l 1.7321,1 c 1.6568,-2.8698 0.6736,-6.5393 -2.1962,-8.1962 z m 1.4641,5.4641 c -0.0868,0.1503 -0.1816,0.2925 -0.2834,0.4265 l 1.592,1.2105 c 0.1528,-0.2009 0.2944,-0.4134 0.4235,-0.637 z M 17,42 c 0.2648,0 0.5261,-0.0172 0.7827,-0.0507 L 17.5239,39.9661 C 17.3529,39.9884 17.178,40 17,40 Z m -6,-6 c 0,3.3137 2.6863,6 6,6 v -2 c -2.2091,0 -4,-1.7909 -4,-4 z m 6,-6 c -3.3137,0 -6,2.6863 -6,6 h 2 c 0,-2.2091 1.7909,-4 4,-4 z m 0.7827,0.0507 C 17.5261,30.0172 17.2648,30 17,30 v 2 c 0.178,0 0.3529,0.0116 0.5239,0.0339 z m 0.8361,1.2519 c 1.0256,-3.8046 3.2686,-7.1126 6.2876,-9.4787 l -1.2337,-1.5742 c -3.3511,2.6264 -5.8442,6.3005 -6.9849,10.5323 z m 4.8227,-9.7358 3.7434,5.9894 1.696,-1.06 -3.7434,-5.9894 z m 3.9272,4.7119 C 24.6901,28.6585 23,32.1325 23,36 h 2 c 0,-3.2722 1.4275,-6.2098 3.6971,-8.2262 z M 23,36 c 0,3.8675 1.6901,7.3415 4.3687,9.7213 l 1.3284,-1.4951 C 26.4275,42.2098 25,39.2722 25,36 Z m 4.1849,8.4438 -3.7434,5.9894 1.696,1.06 3.7434,-5.9894 z m -2.2785,5.7323 C 21.8874,47.81 19.6444,44.502 18.6188,40.6974 l -1.931,0.5206 c 1.1407,4.2318 3.6338,7.9059 6.9849,10.5322 z m 25.8054,-0.749 C 50.5801,49.199 50.4354,48.9824 50.2791,48.7779 l -1.5889,1.2146 c 0.1042,0.1363 0.201,0.2812 0.2896,0.4346 z m -2.1961,8.1962 c 2.8697,-1.6569 3.853,-5.3264 2.1961,-8.1962 l -1.732,1 c 1.1045,1.9132 0.449,4.3595 -1.4641,5.4641 z m -8.1962,-2.1962 c 1.6569,2.8698 5.3264,3.853 8.1962,2.1962 l -1,-1.7321 c -1.9132,1.1046 -4.3596,0.4491 -5.4641,-1.4641 z m -0.337,-0.6782 c 0.097,0.2304 0.2092,0.4569 0.337,0.6782 l 1.7321,-1 c -0.0859,-0.1488 -0.161,-0.3004 -0.2257,-0.454 z m 0.6643,-1.3542 C 39.1655,53.7894 37.6081,54 36,54 v 2 c 1.7835,0 3.5139,-0.2337 5.1617,-0.6727 z M 36,54 c -2.8289,0 -5.5026,-0.6519 -7.8819,-1.8126 l -0.8769,1.7975 C 29.8876,55.276 32.8607,56 36,56 Z m -7.4723,-0.3839 3.7436,-5.9897 -1.696,-1.06 -3.7436,5.9897 z m 2.5139,-5.5954 C 32.5709,48.6521 34.2461,49 36,49 v -2 c -1.4875,0 -2.9036,-0.2947 -4.1951,-0.828 z M 36,49 c 6.4425,0 11.7887,-4.6854 12.8203,-10.8346 L 46.8479,37.8345 C 45.9752,43.0363 41.4495,47 36,47 Z M 47.8341,39 h 7.0619 v -2 h -7.0619 z m 6.0673,-1.1041 c -0.4382,4.1889 -2.3133,7.9509 -5.1265,10.7848 l 1.4194,1.409 c 3.1232,-3.1461 5.209,-7.3276 5.6963,-11.9857 z"
       id="path2" />
    <path
       fill="none"
       stroke="#000"
       stroke-linejoin="round"
       stroke-width="2"
       d="m 36,64.0001 c 15.464,0 28,-12.536 28,-28 0,-15.464 -12.536,-28 -28,-28 -15.464,0 -28,12.536 -28,28 0,15.464 12.536,28 28,28 z"
       id="path4" />
  </g>
</g></svg>

<svg xmlns="http://www.w3.org/2000/svg" width="24" height="24" viewBox="0 0 24 24"> <g transform="scale(0.333333333)">  <g id="line">
    <path fill="#000" d="M54.896 34L54.896 35C55.1793 35 55.4493 34.8798 55.639 34.6693C55.8286 34.4588 55.92 34.1777 55.8906 33.8959L54.896 34ZM49.4735 22.6035L48.6775 21.9983C48.3754 22.3955 48.4125 22.9547 48.7644 23.3086L49.4735 22.6035ZM47.8341 34L46.8479 34.1654C46.9287 34.6471 47.3456 35 47.8341 35L47.8341 34ZM31.4233 24.9036L30.5753 25.4336C30.834 25.8476 31.3537 26.0142 31.8049 25.8279L31.4233 24.9036ZM27.6797 18.9139L27.2412 18.0151C26.9865 18.1394 26.7965 18.3659 26.7184 18.6383C26.6403 18.9108 26.6815 19.2035 26.8317 19.4439L27.6797 18.9139ZM40.8869 17.6344L40.6303 18.6009C41.1121 18.7288 41.6145 18.4823 41.8083 18.023L40.8869 17.6344ZM41.1667 17.0718L40.3007 16.5718L40.3007 16.5718L41.1667 17.0718ZM47.9968 15.2417L47.4968 16.1077L47.4968 16.1077L47.9968 15.2417ZM49.8269 22.0718L50.693 22.5718L50.693 22.5718L49.8269 22.0718ZM17.6533 40.9577L18.6188 40.6974C18.4885 40.2139 18.0205 39.9013 17.5239 39.9661L17.6533 40.9577ZM17.6533 31.0423L17.5239 32.0339C18.0205 32.0987 18.4885 31.7861 18.6188 31.3026L17.6533 31.0423ZM24.2895 21.0368L25.1375 20.5068C24.9872 20.2663 24.7418 20.1009 24.4624 20.0519C24.183 20.0029 23.8959 20.0748 23.6727 20.2497L24.2895 21.0368ZM28.0329 27.0262L28.6971 27.7738C29.0618 27.4498 29.1395 26.9099 28.8809 26.4962L28.0329 27.0262ZM28.0329 44.9738L28.8809 45.5038C29.1395 45.0901 29.0618 44.5502 28.6971 44.2262L28.0329 44.9738ZM24.2895 50.9632L23.6727 51.7502C23.8959 51.9252 24.183 51.9971 24.4624 51.9481C24.7418 51.8991 24.9872 51.7337 25.1375 51.4932L24.2895 50.9632ZM49.8458 49.9271L50.7118 49.4271L50.7118 49.4271L49.8458 49.9271ZM49.4846 49.3852L48.7749 48.6807C48.4229 49.0354 48.3867 49.5955 48.6902 49.9925L49.4846 49.3852ZM48.0157 56.7572L48.5157 57.6233L48.5157 57.6233L48.0157 56.7572ZM41.1855 54.9271L40.3195 55.4271L40.3195 55.4271L41.1855 54.9271ZM40.9042 54.361L41.8259 53.9731C41.6323 53.5131 41.1291 53.2662 40.6468 53.3947L40.9042 54.361ZM27.6797 53.0861L26.8317 52.5561C26.6815 52.7965 26.6403 53.0892 26.7184 53.3617C26.7965 53.6341 26.9865 53.8606 27.2412 53.9849L27.6797 53.0861ZM31.4233 47.0964L31.8049 46.172C31.3537 45.9858 30.834 46.1524 30.5753 46.5664L31.4233 47.0964ZM47.8341 38L47.8341 37C47.3456 37 46.9287 37.3528 46.8479 37.8345L47.8341 38ZM54.896 38L55.8906 38.104C55.92 37.8223 55.8286 37.5412 55.639 37.3307C55.4493 37.1202 55.1793 37 54.896 37L54.896 38ZM55.8906 33.8959C55.4027 29.2321 53.3122 25.046 50.1826 21.8985L48.7644 23.3086C51.5834 26.1437 53.4627 29.91 53.9014 34.104L55.8906 33.8959ZM47.8341 35L54.896 35L54.896 33L47.8341 33L47.8341 35ZM36 25C41.4495 25 45.9752 28.9637 46.8479 34.1654L48.8203 33.8345C47.7887 27.6854 42.4425 23 36 23V25ZM31.8049 25.8279C33.0964 25.2947 34.5125 25 36 25V23C34.2461 23 32.5709 23.3479 31.0416 23.9793L31.8049 25.8279ZM26.8317 19.4439L30.5753 25.4336L32.2713 24.3736L28.5277 18.3839L26.8317 19.4439ZM36 16C32.8607 16 29.8876 16.724 27.2412 18.0151L28.1181 19.8126C30.4974 18.6518 33.1711 18 36 18V16ZM41.1434 16.6678C39.5011 16.232 37.7769 16 36 16V18C37.6022 18 39.154 18.2091 40.6303 18.6009L41.1434 16.6678ZM41.8083 18.023C41.8726 17.8704 41.9473 17.7197 42.0327 17.5718L40.3007 16.5718C40.1737 16.7918 40.062 17.0168 39.9655 17.2458L41.8083 18.023ZM42.0327 17.5718C43.1373 15.6586 45.5836 15.0031 47.4968 16.1077L48.4968 14.3756C45.6271 12.7188 41.9575 13.702 40.3007 16.5718L42.0327 17.5718ZM47.4968 16.1077C49.41 17.2123 50.0655 19.6586 48.9609 21.5718L50.693 22.5718C52.3498 19.702 51.3666 16.0325 48.4968 14.3756L47.4968 16.1077ZM48.9609 21.5718C48.8741 21.7221 48.7793 21.8643 48.6775 21.9983L50.2695 23.2088C50.4223 23.0079 50.5639 22.7954 50.693 22.5718L48.9609 21.5718ZM17 42C17.2648 42 17.5261 41.9828 17.7827 41.9493L17.5239 39.9661C17.3529 39.9884 17.178 40 17 40V42ZM11 36C11 39.3137 13.6863 42 17 42V40C14.7909 40 13 38.2091 13 36H11ZM17 30C13.6863 30 11 32.6863 11 36H13C13 33.7909 14.7909 32 17 32V30ZM17.7827 30.0507C17.5261 30.0172 17.2648 30 17 30V32C17.178 32 17.3529 32.0116 17.5239 32.0339L17.7827 30.0507ZM18.6188 31.3026C19.6444 27.498 21.8874 24.19 24.9064 21.8239L23.6727 20.2497C20.3216 22.8761 17.8285 26.5502 16.6878 30.782L18.6188 31.3026ZM23.4415 21.5668L27.1849 27.5562L28.8809 26.4962L25.1375 20.5068L23.4415 21.5668ZM27.3687 26.2787C24.6901 28.6585 23 32.1325 23 36H25C25 32.7278 26.4275 29.7902 28.6971 27.7738L27.3687 26.2787ZM23 36C23 39.8675 24.6901 43.3415 27.3687 45.7213L28.6971 44.2262C26.4275 42.2098 25 39.2722 25 36H23ZM27.1849 44.4438L23.4415 50.4332L25.1375 51.4932L28.8809 45.5038L27.1849 44.4438ZM24.9064 50.1761C21.8874 47.81 19.6444 44.502 18.6188 40.6974L16.6878 41.218C17.8285 45.4498 20.3216 49.1239 23.6727 51.7502L24.9064 50.1761ZM50.7118 49.4271C50.5801 49.199 50.4354 48.9824 50.2791 48.7779L48.6902 49.9925C48.7944 50.1288 48.8912 50.2737 48.9798 50.4271L50.7118 49.4271ZM48.5157 57.6233C51.3854 55.9664 52.3687 52.2969 50.7118 49.4271L48.9798 50.4271C50.0843 52.3403 49.4288 54.7866 47.5157 55.8912L48.5157 57.6233ZM40.3195 55.4271C41.9764 58.2969 45.6459 59.2801 48.5157 57.6233L47.5157 55.8912C45.6025 56.9958 43.1561 56.3403 42.0516 54.4271L40.3195 55.4271ZM39.9825 54.7489C40.0795 54.9793 40.1917 55.2058 40.3195 55.4271L42.0516 54.4271C41.9657 54.2783 41.8906 54.1267 41.8259 53.9731L39.9825 54.7489ZM40.6468 53.3947C39.1655 53.7894 37.6081 54 36 54V56C37.7835 56 39.5139 55.7663 41.1617 55.3273L40.6468 53.3947ZM36 54C33.1711 54 30.4974 53.3481 28.1181 52.1874L27.2412 53.9849C29.8876 55.276 32.8607 56 36 56V54ZM28.5277 53.6161L32.2713 47.6264L30.5753 46.5664L26.8317 52.5561L28.5277 53.6161ZM31.0416 48.0207C32.5709 48.6521 34.2461 49 36 49V47C34.5125 47 33.0964 46.7053 31.8049 46.172L31.0416 48.0207ZM36 49C42.4425 49 47.7887 44.3146 48.8203 38.1654L46.8479 37.8345C45.9752 43.0363 41.4495 47 36 47V49ZM47.8341 39L54.896 39L54.896 37L47.8341 37L47.8341 39ZM53.9014 37.8959C53.4632 42.0848 51.5881 45.8468 48.7749 48.6807L50.1943 50.0897C53.3175 46.9436 55.4033 42.7621 55.8906 38.104L53.9014 37.8959Z"/>
    <path fill="none" stroke="#000" stroke-linejoin="round" stroke-width="2" d="M36 64.0001C51.464 64.0001 64 51.4641 64 36.0001C64 20.5361 51.464 8.0001 36 8.0001C20.536 8.0001 8 20.5361 8 36.0001C8 51.4641 20.536 64.0001 36 64.0001Z"/>
  </g></g></svg>
